proj/static/img/icons8-spreadsheet.svg

<svg xmlns="http://www.w3.org/2000/svg"  viewBox="0 0 48 48" width="48px" height="48px"><path d="M 15.984375 4.9863281 A 1.0001 1.0001 0 0 0 15.841797 5 L 10 5 C 7.2518422 5 5 7.2518422 5 10 L 5 38 C 5 40.748158 7.2518422 43 10 43 L 15.832031 43 A 1.0001 1.0001 0 0 0 16.158203 43 L 38 43 C 40.748158 43 43 40.748158 43 38 L 43 16.167969 A 1.0001 1.0001 0 0 0 43 15.841797 L 43 10 C 43 7.2518422 40.748158 5 38 5 L 16.167969 5 A 1.0001 1.0001 0 0 0 15.984375 4.9863281 z M 10 7 L 15 7 L 15 15 L 10 15 A 1.0001 1.0001 0 1 0 10 17 L 15 17 L 15 41 L 10 41 C 8.3361578 41 7 39.663842 7 38 L 7 10 C 7 8.3361578 8.3361578 7 10 7 z M 17 7 L 38 7 C 39.663842 7 41 8.3361578 41 10 L 41 15 L 20 15 A 1.0001 1.0001 0 1 0 20 17 L 41 17 L 41 38 C 41 39.663842 39.663842 41 38 41 L 17 41 L 17 16.167969 A 1.0001 1.0001 0 0 0 17 15.841797 L 17 7 z"/></svg>

<svg xmlns="http://www.w3.org/2000/svg" xmlns:xlink="http://www.w3.org/1999/xlink" viewBox="0,0,256,256" width="48px" height="48px"><g fill="#ffffff" fill-rule="nonzero" stroke="none" stroke-width="1" stroke-linecap="butt" stroke-linejoin="miter" stroke-miterlimit="10" stroke-dasharray="" stroke-dashoffset="0" font-family="none" font-weight="none" font-size="none" text-anchor="none" style="mix-blend-mode: normal"><g transform="scale(5.33333,5.33333)"><path d="M15.98438,4.98633c-0.04779,0.00114 -0.09544,0.00571 -0.14258,0.01367h-5.8418c-2.74816,0 -5,2.25184 -5,5v28c0,2.74816 2.25184,5 5,5h5.83203c0.10799,0.01785 0.21818,0.01785 0.32617,0h21.8418c2.74816,0 5,-2.25184 5,-5v-21.83203c0.01785,-0.10799 0.01785,-0.21818 0,-0.32617v-5.8418c0,-2.74816 -2.25184,-5 -5,-5h-21.83203c-0.06065,-0.01019 -0.12211,-0.01477 -0.18359,-0.01367zM10,7h5v8h-5c-0.36064,-0.0051 -0.69608,0.18438 -0.87789,0.49587c-0.18181,0.3115 -0.18181,0.69676 0,1.00825c0.18181,0.3115 0.51725,0.50097 0.87789,0.49587h5v24h-5c-1.66384,0 -3,-1.33616 -3,-3v-28c0,-1.66384 1.33616,-3 3,-3zM17,7h21c1.66384,0 3,1.33616 3,3v5h-21c-0.36064,-0.0051 -0.69608,0.18438 -0.87789,0.49587c-0.18181,0.3115 -0.18181,0.69676 0,1.00825c0.18181,0.3115 0.51725,0.50097 0.87789,0.49587h21v21c0,1.66384 -1.33616,3 -3,3h-21v-24.83203c0.01785,-0.10799 0.01785,-0.21818 0,-0.32617z"></path></g></g></svg>
